X: 17435
T: Highland Kitty
R: jig
M: 6/8
K: Bminor
|:~B3 d2f|~B3 d2B|c2A ~A3|ecA ~A3|
~B3 d2f|~B3 d2B|c2A ecA|~B3 f3:|
|:d2a f2a|d2a afd|c2e A2e|c2e ecA|
[1 d2a f2a|d2a afd|c2A ecA|~B3 f3:|
[2 c2d e2a|f2d e2c|d2B cBA|~B3 f3||

